static/logos/designstripe-wordmark-color.svg

<svg width="100" height="20" viewBox="0 0 100 20" fill="none" xmlns="http://www.w3.org/2000/svg">
<g clip-path="url(#clip0_1_3067)">
<path d="M28.137 11.7902L28.3384 12.9866H30.1743V3.86584H28.0541V7.09959C27.7106 6.40069 27.0591 5.98611 26.0641 5.98611C25.0217 5.98611 24.1689 6.45993 23.7069 7.45493C23.47 7.96428 23.3516 8.5802 23.3516 9.36199V9.56336C23.3516 11.9324 24.3821 13.1169 26.0522 13.1169C27.1183 13.1169 27.7935 12.5957 28.137 11.7902ZM26.7629 11.2809C26.0285 11.2809 25.5192 10.7953 25.5192 9.55153V9.39752C25.5192 8.31962 25.993 7.76291 26.7985 7.76291C27.5803 7.76291 28.0777 8.35516 28.0777 9.39752V9.55153C28.0777 10.7123 27.5566 11.2809 26.7629 11.2809Z" fill="#391145"/>
<path d="M38.0115 10.8072H35.7254C35.5715 11.1981 35.2279 11.4587 34.6238 11.4587C33.7828 11.4587 33.3209 11.0322 33.2143 10.1794H38.0589V9.40944C38.0589 8.15387 37.597 7.0878 36.5783 6.44818C36.0689 6.12837 35.4056 5.97437 34.6002 5.97437C33.1669 5.97437 32.1008 6.55478 31.5086 7.62085C31.2125 8.14204 31.0703 8.76982 31.0703 9.51608V9.71742C31.0703 11.8496 32.1719 13.1644 34.5646 13.1644C36.5783 13.1644 37.6325 12.2523 38.0115 10.8072ZM34.6238 7.60898C35.4293 7.60898 35.832 8.04727 35.9268 8.82906H33.2143C33.3564 7.9999 33.8302 7.60898 34.6238 7.60898Z" fill="#391145"/>
<path d="M41.9112 13.1762C43.3444 13.1762 44.2681 12.7261 44.7421 12.0154C44.9669 11.6482 45.0857 11.2455 45.0857 10.7835C45.0857 9.97802 44.7421 9.5042 44.2326 9.21993C43.7116 8.93565 43.0837 8.81718 42.4795 8.73428C41.4608 8.60397 40.8807 8.53291 40.8807 8.10649C40.8807 7.77481 41.1173 7.52607 41.7807 7.52607C42.4204 7.52607 42.7876 7.76298 42.8822 8.26046H45.0028C44.8013 6.87459 43.8891 5.96252 41.8044 5.96252C39.8502 5.96252 38.8078 6.88642 38.8078 8.2368C38.8078 9.06592 39.1395 9.53974 39.6605 9.81218C40.17 10.0965 40.7975 10.2031 41.3899 10.286C41.9586 10.3452 42.4795 10.4163 42.7639 10.5703C42.9177 10.6532 42.9891 10.7716 42.9891 10.9256C42.9891 11.3047 42.7047 11.5297 42.0177 11.5297C41.307 11.5297 40.8925 11.2455 40.7502 10.6887H38.5234C38.7482 12.276 39.8502 13.1762 41.9112 13.1762Z" fill="#391145"/>
<path d="M47.0178 5.72552C47.906 5.72552 48.3086 5.44124 48.3086 4.65945C48.3086 3.85399 47.8705 3.58154 47.0178 3.58154C46.1411 3.58154 45.7266 3.85399 45.7266 4.65945C45.7266 5.46491 46.0701 5.72552 47.0178 5.72552ZM45.8926 6.1638V12.9866H48.1311V6.15193C48.0483 6.19933 47.7521 6.25853 47.4323 6.2704C47.2785 6.28223 47.1479 6.29407 47.0178 6.29407C46.7808 6.29407 46.4254 6.2704 46.1529 6.23487C46.0109 6.223 45.9399 6.19933 45.8926 6.1638Z" fill="#391145"/>
<path d="M52.1521 15.8887H52.2467C54.8524 15.8887 55.9543 14.9411 55.9543 13.4368C55.9543 12.1457 55.0895 11.3757 53.1585 11.3757H51.6898C50.9437 11.3757 50.7303 11.2928 50.7303 11.0559C50.7303 10.8782 50.8135 10.7835 51.1807 10.7242C51.3582 10.7124 51.6188 10.6887 51.9624 10.6887H52.365C54.4261 10.6887 55.599 9.88322 55.599 8.33151V8.28414C55.599 7.24177 54.9711 6.54292 53.7982 6.30601C54.7933 6.30601 55.3146 6.17571 55.5158 5.78483C55.6227 5.58345 55.6818 5.29918 55.6818 4.93196V4.73059H53.3601V4.9675C53.3601 5.53605 53.3009 5.82036 53.0166 5.92696C52.8746 5.98616 52.6494 6.0217 52.3295 6.03357L52.1521 6.0454C50.3631 6.10464 49.2024 6.85086 49.2024 8.30784V8.31967C49.2024 9.29097 49.6524 9.89506 50.5055 10.2149C49.5578 10.4163 49.0246 10.9375 49.0246 11.7429C49.0246 12.4891 49.5104 12.9511 50.3868 13.0933C49.3681 13.2828 48.9062 13.7329 48.9062 14.4199C48.9062 15.0359 49.2261 15.4741 50.162 15.711C50.6356 15.8413 51.299 15.8887 52.1521 15.8887ZM52.3887 9.26727C51.749 9.26727 51.3463 8.99483 51.3463 8.39074V8.34338C51.3463 7.69189 51.7967 7.39574 52.4005 7.39574C53.0047 7.39574 53.4429 7.63265 53.4429 8.33151V8.37891C53.4429 8.983 53.0402 9.26727 52.3887 9.26727ZM52.4242 14.3725H52.128C51.1925 14.3725 50.8608 14.1001 50.8608 13.7803V13.7684C50.8608 13.4012 51.2872 13.1762 51.9979 13.1406H53.0521C53.8456 13.1406 54.0944 13.342 54.0944 13.6618C54.0944 14.0764 53.6326 14.3725 52.4242 14.3725Z" fill="#391145"/>
<path d="M58.6678 12.9867V9.39761C58.6678 8.45001 58.964 7.83406 59.793 7.83406C60.5865 7.83406 60.7998 8.37894 60.7998 9.23177V12.9867H62.9792V8.61582C62.9792 6.94566 62.1857 5.97437 60.646 5.97437C59.58 5.97437 58.8811 6.48372 58.5136 7.27734L58.3124 6.1165H56.4766V12.9867H58.6678Z" fill="#391145"/>
<path d="M66.9659 13.1762C68.3991 13.1762 69.3232 12.7261 69.7968 12.0154C70.022 11.6482 70.1403 11.2455 70.1403 10.7835C70.1403 9.97802 69.7968 9.5042 69.2877 9.21993C68.7667 8.93565 68.1388 8.81718 67.5346 8.73428C66.5159 8.60397 65.9354 8.53291 65.9354 8.10649C65.9354 7.77481 66.1724 7.52607 66.8358 7.52607C67.4754 7.52607 67.8426 7.76298 67.9373 8.26046H70.0575C69.8564 6.87459 68.9442 5.96252 66.8594 5.96252C64.9048 5.96252 63.8625 6.88642 63.8625 8.2368C63.8625 9.06592 64.1942 9.53974 64.7155 9.81218C65.2247 10.0965 65.8525 10.2031 66.4449 10.286C67.0132 10.3452 67.5346 10.4163 67.819 10.5703C67.9728 10.6532 68.0438 10.7716 68.0438 10.9256C68.0438 11.3047 67.7598 11.5297 67.0728 11.5297C66.3621 11.5297 65.9472 11.2455 65.8052 10.6887H63.5781C63.8033 12.276 64.9048 13.1762 66.9659 13.1762Z" fill="#391145"/>
<path d="M75.286 12.9866V10.9848H74.8478C74.1608 10.9848 73.8646 10.9137 73.7344 10.5465C73.6871 10.357 73.6516 10.0609 73.6516 9.67V8.02351H75.286V6.11644H73.6516V4.39893H71.8745C71.8627 4.6832 71.839 5.05038 71.8035 5.33469C71.7443 5.92694 71.5787 6.10461 71.1283 6.16385C70.8917 6.21122 70.7256 6.23492 70.4531 6.23492V8.02351H71.6142V10.0964C71.6142 11.5297 71.8508 12.3351 72.5974 12.7142C72.9764 12.8919 73.4974 12.9866 74.1963 12.9866H75.286Z" fill="#391145"/>
<path d="M76.1875 12.9867H78.3906V9.94249C78.3906 9.11333 78.5325 8.65135 78.9829 8.45001C79.2196 8.34341 79.5394 8.28417 79.9539 8.28417H80.7596V6.02173H80.3688C79.1249 6.02173 78.4379 6.44818 78.2127 7.52608L77.9169 6.1165H76.1875V12.9867Z" fill="#391145"/>
<path d="M82.7834 5.72552C83.6716 5.72552 84.0742 5.44124 84.0742 4.65945C84.0742 3.85399 83.6361 3.58154 82.7834 3.58154C81.9067 3.58154 81.4922 3.85399 81.4922 4.65945C81.4922 5.46491 81.8357 5.72552 82.7834 5.72552ZM81.6578 6.1638V12.9866H83.8968V6.15193C83.8139 6.19933 83.5178 6.25853 83.1979 6.2704C83.0437 6.28223 82.9136 6.29407 82.7834 6.29407C82.5464 6.29407 82.191 6.2704 81.9185 6.23487C81.7765 6.223 81.7055 6.19933 81.6578 6.1638Z" fill="#391145"/>
<path d="M89.2081 13.117C90.2504 13.117 91.0917 12.6432 91.5535 11.6482C91.7905 11.1388 91.9088 10.5229 91.9088 9.74112V9.53975C91.9088 7.17074 90.8901 5.97437 89.1962 5.97437C88.1539 5.97437 87.4669 6.49555 87.1233 7.30101L86.9222 6.1165H85.0859V15.332H87.2062V11.9917C87.5497 12.7024 88.1894 13.117 89.2081 13.117ZM88.4737 11.3165C87.692 11.3165 87.1825 10.748 87.1825 9.68188V9.52791C87.1825 8.36707 87.7039 7.79853 88.4856 7.79853C89.2317 7.79853 89.7768 8.31971 89.7768 9.53975V9.70559C89.7768 10.7835 89.2672 11.3165 88.4737 11.3165Z" fill="#391145"/>
<path d="M99.6443 10.8072H97.3581C97.2043 11.1981 96.8608 11.4587 96.2566 11.4587C95.4157 11.4587 94.9535 11.0322 94.847 10.1794H99.6917V9.40944C99.6917 8.15387 99.2298 7.0878 98.2111 6.44818C97.7016 6.12837 97.0382 5.97437 96.2329 5.97437C94.7997 5.97437 93.7337 6.55478 93.1413 7.62085C92.8451 8.14204 92.7031 8.76982 92.7031 9.51608V9.71742C92.7031 11.8496 93.8047 13.1644 96.1974 13.1644C98.2111 13.1644 99.2653 12.2523 99.6443 10.8072ZM96.2566 7.60898C97.0619 7.60898 97.465 8.04727 97.5596 8.82906H94.847C94.989 7.9999 95.463 7.60898 96.2566 7.60898Z" fill="#391145"/>
<path d="M4.46121 0H1.20395C0.913652 0 0.635243 0.115309 0.429968 0.320583C0.224696 0.525855 0.109375 0.804237 0.109375 1.09454V7.60905C0.109375 7.75279 0.137686 7.89515 0.192693 8.02794C0.247701 8.16072 0.328327 8.28137 0.429968 8.38301C0.531606 8.48466 0.652274 8.56531 0.785072 8.62031C0.917873 8.67531 1.06021 8.70363 1.20395 8.70363H4.46121C5.61537 8.70363 6.72228 8.24511 7.53839 7.42901C8.35453 6.61286 8.81301 5.50599 8.81301 4.35183C8.81301 3.19764 8.35453 2.09071 7.53839 1.27459C6.72228 0.458462 5.61537 0 4.46121 0Z" fill="#F4C345"/>
<path d="M7.35963 2.17603H4.10237C3.95863 2.17603 3.81631 2.20433 3.68351 2.25934C3.55071 2.31435 3.43005 2.39497 3.32841 2.49661C3.22677 2.59825 3.14614 2.71892 3.09113 2.85172C3.03613 2.98452 3.00781 3.12687 3.00781 3.27061V9.78508C3.00781 10.0753 3.12313 10.3538 3.3284 10.5591C3.53368 10.7644 3.81209 10.8797 4.10237 10.8797H7.35963C7.93111 10.8797 8.49703 10.7671 9.02501 10.5484C9.55299 10.3297 10.0327 10.0091 10.4368 9.60501C10.8409 9.20092 11.1615 8.72119 11.3802 8.19321C11.5989 7.66524 11.7115 7.09932 11.7115 6.52783C11.7115 5.37367 11.2529 4.2668 10.4368 3.45066C9.62069 2.63454 8.51382 2.17603 7.35963 2.17603Z" fill="#FF7E69"/>
<path d="M10.2659 4.35193H7.00864C6.8649 4.35193 6.72257 4.38021 6.58979 4.43521C6.45696 4.49025 6.33631 4.57086 6.23467 4.6725C6.13303 4.77414 6.05238 4.89479 5.99738 5.02762C5.94238 5.1604 5.91406 5.30269 5.91406 5.44643V11.9609C5.91406 12.2512 6.02941 12.5297 6.23467 12.7349C6.43994 12.9402 6.71834 13.0556 7.00864 13.0556H10.2659C11.4201 13.0556 12.527 12.597 13.3431 11.7809C14.1592 10.9648 14.6177 9.85788 14.6177 8.70372C14.6177 7.54956 14.1592 6.44262 13.3431 5.62651C12.527 4.81036 11.4201 4.35193 10.2659 4.35193Z" fill="#391145"/>
<path d="M13.1643 6.52783H9.90708C9.61677 6.52783 9.33838 6.64314 9.13311 6.8484C8.92781 7.05367 8.8125 7.33211 8.8125 7.62241V14.1369C8.8125 14.4272 8.92781 14.7056 9.13307 14.9109C9.33838 15.1162 9.61677 15.2315 9.90708 15.2315H13.1643C14.3185 15.2315 15.4254 14.7729 16.2415 13.9568C17.0577 13.1407 17.5161 12.0338 17.5161 10.8796C17.5161 9.72547 17.0577 8.6186 16.2415 7.80245C15.4254 6.98634 14.3185 6.52783 13.1643 6.52783Z" fill="#52A8CE"/>
<path d="M13.4008 19.3693L14.9248 17.8961C15.0572 17.7683 15.2171 17.6727 15.3924 17.6165C15.5676 17.5604 15.7533 17.5452 15.9353 17.5723L17.9964 17.878C18.0629 17.8881 18.131 17.8784 18.192 17.8499C18.253 17.8214 18.3042 17.7755 18.3392 17.718C18.3741 17.6604 18.3912 17.5938 18.3884 17.5265C18.3855 17.4593 18.3628 17.3944 18.3231 17.34L13.4388 10.6786C13.3962 10.6205 13.3363 10.5773 13.2678 10.5552C13.1992 10.5331 13.1254 10.5332 13.0569 10.5555C12.9884 10.5777 12.9286 10.621 12.8862 10.6792C12.8437 10.7374 12.8207 10.8075 12.8203 10.8796V19.1248C12.8206 19.1919 12.8406 19.2575 12.8778 19.3133C12.9151 19.3691 12.9679 19.4128 13.0297 19.4388C13.0916 19.4649 13.1597 19.4722 13.2257 19.4599C13.2917 19.4475 13.3526 19.416 13.4008 19.3693Z" fill="#391145"/>
</g>
<defs>
<clipPath id="clip0_1_3067">
<rect width="100" height="19.4656" fill="white"/>
</clipPath>
</defs>
</svg>

<svg xmlns="http://www.w3.org/2000/svg" width="320" height="64" fill="none" viewBox="0 0 100 20"><g clip-path="url(#a)"><path fill="#391145" d="m28.137 11.79.201 1.197h1.836V3.866h-2.12V7.1c-.343-.7-.995-1.114-1.99-1.114-1.042 0-1.895.474-2.357 1.469-.237.51-.355 1.125-.355 1.907v.201c0 2.37 1.03 3.554 2.7 3.554 1.066 0 1.742-.521 2.085-1.327Zm-1.374-.51c-.735 0-1.244-.485-1.244-1.728v-.154c0-1.078.474-1.635 1.28-1.635.781 0 1.279.592 1.279 1.635v.154c0 1.16-.521 1.729-1.315 1.729ZM38.011 10.807h-2.286c-.154.391-.497.652-1.101.652-.841 0-1.303-.427-1.41-1.28h4.845v-.77c0-1.255-.462-2.321-1.48-2.96-.51-.32-1.173-.475-1.979-.475-1.433 0-2.5.58-3.091 1.647-.297.521-.439 1.149-.439 1.895v.201c0 2.133 1.102 3.447 3.495 3.447 2.013 0 3.068-.912 3.447-2.357ZM34.624 7.61c.805 0 1.208.438 1.303 1.22h-2.713c.142-.83.616-1.22 1.41-1.22ZM41.911 13.176c1.433 0 2.357-.45 2.831-1.16.225-.368.344-.77.344-1.232 0-.806-.344-1.28-.853-1.564-.521-.284-1.15-.403-1.753-.486-1.02-.13-1.6-.201-1.6-.628 0-.331.237-.58.9-.58.64 0 1.008.237 1.102.734h2.12c-.2-1.385-1.113-2.297-3.198-2.297-1.954 0-2.996.923-2.996 2.274 0 .829.331 1.303.852 1.575.51.285 1.138.391 1.73.474.569.06 1.09.13 1.374.284.154.083.225.202.225.356 0 .379-.284.604-.971.604-.711 0-1.126-.284-1.268-.841h-2.227c.225 1.587 1.327 2.487 3.388 2.487ZM47.018 5.726c.888 0 1.29-.285 1.29-1.067 0-.805-.438-1.077-1.29-1.077-.877 0-1.291.272-1.291 1.077 0 .806.343 1.067 1.29 1.067Zm-1.125.438v6.823h2.238V6.152c-.083.047-.379.107-.699.118-.154.012-.284.024-.414.024-.237 0-.593-.024-.865-.06-.142-.011-.213-.035-.26-.07ZM52.152 15.889h.095c2.605 0 3.707-.948 3.707-2.452 0-1.291-.864-2.061-2.796-2.061H51.69c-.746 0-.96-.083-.96-.32 0-.178.084-.272.45-.332.178-.012.439-.035.782-.035h.403c2.061 0 3.234-.806 3.234-2.357v-.048c0-1.042-.628-1.741-1.8-1.978.994 0 1.516-.13 1.717-.521.107-.202.166-.486.166-.853v-.201H53.36v.237c0 .568-.06.852-.343.959-.142.06-.368.095-.688.107l-.177.011c-1.789.06-2.95.806-2.95 2.263v.012c0 .971.45 1.575 1.303 1.895-.947.201-1.48.723-1.48 1.528 0 .746.485 1.208 1.362 1.35-1.019.19-1.48.64-1.48 1.327 0 .616.32 1.054 1.255 1.291.474.13 1.137.178 1.99.178Zm.237-6.622c-.64 0-1.043-.272-1.043-.876v-.048c0-.651.45-.947 1.055-.947.604 0 1.042.237 1.042.936v.047c0 .604-.403.888-1.054.888Zm.035 5.106h-.296c-.935 0-1.267-.273-1.267-.593v-.012c0-.367.426-.592 1.137-.627h1.054c.794 0 1.042.201 1.042.52 0 .415-.461.712-1.67.712ZM58.668 12.987v-3.59c0-.947.296-1.563 1.125-1.563.794 0 1.007.545 1.007 1.398v3.755h2.18V8.616c0-1.67-.794-2.642-2.334-2.642-1.066 0-1.765.51-2.132 1.303l-.202-1.16h-1.835v6.87h2.19ZM66.966 13.176c1.433 0 2.357-.45 2.83-1.16.226-.368.344-.77.344-1.232 0-.806-.343-1.28-.852-1.564-.521-.284-1.15-.403-1.753-.486-1.02-.13-1.6-.201-1.6-.628 0-.331.237-.58.9-.58.64 0 1.008.237 1.102.734h2.12c-.2-1.385-1.113-2.297-3.198-2.297-1.954 0-2.996.923-2.996 2.274 0 .829.331 1.303.853 1.575.509.285 1.137.391 1.729.474.568.06 1.09.13 1.374.284.154.083.225.202.225.356 0 .379-.284.604-.971.604-.71 0-1.126-.284-1.268-.841h-2.227c.225 1.587 1.327 2.487 3.388 2.487ZM75.286 12.987v-2.002h-.438c-.687 0-.983-.071-1.114-.438a3.817 3.817 0 0 1-.082-.877V8.024h1.634V6.116h-1.634V4.4h-1.778c-.011.284-.035.651-.07.936-.06.592-.225.77-.676.829a3.027 3.027 0 0 1-.675.07v1.79h1.161v2.072c0 1.434.237 2.24.983 2.618.38.178.9.273 1.6.273h1.089ZM76.188 12.987h2.203V9.942c0-.829.141-1.29.592-1.492.237-.107.556-.166.97-.166h.807V6.022h-.391c-1.244 0-1.931.426-2.156 1.504l-.296-1.41h-1.73v6.87ZM82.783 5.726c.889 0 1.291-.285 1.291-1.067 0-.805-.438-1.077-1.29-1.077-.877 0-1.292.272-1.292 1.077 0 .806.344 1.067 1.291 1.067Zm-1.125.438v6.823h2.239V6.152c-.083.047-.38.107-.7.118-.153.012-.283.024-.414.024-.237 0-.592-.024-.865-.06-.142-.011-.213-.035-.26-.07ZM89.208 13.117c1.042 0 1.884-.474 2.346-1.469.236-.51.355-1.125.355-1.907V9.54c0-2.37-1.019-3.566-2.713-3.566-1.042 0-1.73.522-2.073 1.327l-.2-1.184h-1.837v9.215h2.12v-3.34c.344.71.983 1.125 2.002 1.125Zm-.734-1.8c-.782 0-1.291-.569-1.291-1.635v-.154c0-1.16.52-1.73 1.303-1.73.746 0 1.29.522 1.29 1.742v.166c0 1.078-.509 1.61-1.302 1.61ZM99.644 10.807h-2.286c-.154.391-.497.652-1.101.652-.841 0-1.303-.427-1.41-1.28h4.845v-.77c0-1.255-.462-2.321-1.48-2.96-.51-.32-1.174-.475-1.98-.475-1.432 0-2.498.58-3.09 1.647-.297.521-.439 1.149-.439 1.895v.201c0 2.133 1.102 3.447 3.494 3.447 2.014 0 3.068-.912 3.447-2.357ZM96.257 7.61c.805 0 1.208.438 1.303 1.22h-2.713c.142-.83.616-1.22 1.41-1.22Z"/><path fill="#F4C345" d="M4.461 0H1.204A1.095 1.095 0 0 0 .109 1.095v6.514a1.095 1.095 0 0 0 1.095 1.095h3.257a4.352 4.352 0 0 0 0-8.704Z"/><path fill="#FF7E69" d="M7.36 2.176H4.102a1.094 1.094 0 0 0-1.094 1.095v6.514a1.095 1.095 0 0 0 1.094 1.095H7.36a4.352 4.352 0 0 0 0-8.704Z"/><path fill="#391145" d="M10.266 4.352H7.009a1.094 1.094 0 0 0-1.095 1.094v6.515a1.095 1.095 0 0 0 1.095 1.095h3.257a4.352 4.352 0 0 0 0-8.704Z"/><path fill="#52A8CE" d="M13.164 6.528H9.907a1.095 1.095 0 0 0-1.095 1.094v6.515a1.095 1.095 0 0 0 1.095 1.095h3.257a4.352 4.352 0 0 0 0-8.704Z"/><path fill="#391145" d="m13.4 19.37 1.525-1.474a1.201 1.201 0 0 1 1.01-.324l2.061.306a.341.341 0 0 0 .327-.538l-4.884-6.661a.343.343 0 0 0-.619.2v8.246a.343.343 0 0 0 .58.244Z"/></g><defs><clipPath id="a"><path fill="#fff" d="M0 0h100v19.466H0z"/></clipPath></defs></svg>
